kora/status/symbolic/media-playlist-consecutive-symbolic.svg

<svg xmlns="http://www.w3.org/2000/svg" style="clip-rule:evenodd;fill-rule:evenodd;stroke-linejoin:round;stroke-miterlimit:2" version="1.1" viewBox="0 0 16 16">
 <defs>
  <style id="current-color-scheme" type="text/css">
   .ColorScheme-Text { color:#dfdfdf; } .ColorScheme-Highlight { color:#4285f4; } .ColorScheme-NeutralText { color:#ff9800; } .ColorScheme-PositiveText { color:#4caf50; } .ColorScheme-NegativeText { color:#f44336; }
  </style>
 </defs>
 <path style="fill:currentColor;" class="ColorScheme-Text" d="m11.464 5 0.457 2.318s-7.232-0.318-9.933-0.318c-0.546 0-0.988 0.442-0.988 0.988v0.024c-0 0.546 0.442 0.988 0.988 0.988 2.701 0 9.933-0.318 9.933-0.318l-0.457 2.318 4-3-4-3z"/>
</svg>

<svg style="clip-rule:evenodd;fill-rule:evenodd;stroke-linejoin:round;stroke-miterlimit:2" viewBox="0 0 16 16" xmlns="http://www.w3.org/2000/svg">
 <path d="M11.464,5L11.921,7.318C11.921,7.318 4.689,7 1.988,7C1.442,7 1,7.442 1,7.988L1,8.012C1,8.558 1.442,9 1.988,9C4.689,9 11.921,8.682 11.921,8.682L11.464,11L15.464,8L11.464,5Z" fill="#dfdfdf"/>
</svg>
